X:1
T:Gig's Twigs
C:Jansen Wendell 1992
M:6/8
K:A
|:g| "A" aec "D"dBA | "E" GAB E2E | "D"FDF "A" ECE | Adc "E"B2 g |
 "A" aec "D"dBA | "E" GAB E2E | "D"FDF "A" ECE | "D"FAG "A"A2:|
|: A | "E" GAB EGB | EGB dcB | "A"cde Ace | "F#m"agf "E" edc|
"Bm"Bdf "A (C#m)" ecA | "F#m (D)" FAc "E7"BGE | "D"FDF "A/C#" ECE | "E7" FAG "A" A2  :|
